!!!!SEGMENT: pl-wumfc--n48021--001_gall-jan-karol--4-piesni-ludowe-wloskie-serenata-siciliana-rosa-diletta.krn
!!!cenid: 18xx:4177
!!!COM: Gall, Jan Karol
!!!COM-rismID: pe50042628
!!!CDT: 1856-1912
!!!CNT: Polish
!!!GTL: 4 pieśni ludowe włoskie
!!!OTL: Serenata siciliana/Rosa diletta
!!!OMV: 001
!!!PDT:
!!!AGN:
!!!SMS-siglum: PL-Wumfc
!!!SMS-shelfmark: N48021
!!!SMS-shelfwork: 001-001 G
!!!SMS-variant:
!!!SMS-altvar:
!!!NIFC-rismSourceID: 1001177916
!!!NIFC-rismChildID: 1001177916
!!!NIFC-islandoraID: pl-wumfc:8031
!!!URL-pdf-islandora: https://repozytorium.nifc.pl/islandora/object/pl-wumfc%3A8031/datastream/PDF/view
!!!URL-scan: https://polish.musicsources.pl/pl/lokalizacje/galeria/druki-muzyczne/12516/1 @EN{Scan on Polish Music Sources Website} @PL{Skany w portalu Dziedzictwo Muzyki Polskiej w otwartym dostępie}
!!!IIIF:
!!!ONB-nifc: UWAGA: w zbiorze 1. Serenata siciliana, 2. Dziewczę z Sorentu
!!!AIN: 2 piano 1 vox
!!!key: d
**kern	**kern	**kern	**text	**text	**text
*part3	*part2	*part1	*part1	*part1	*part1
*staff3	*staff2	*staff1	*staff1	*staff1	*staff1
*I"Fortepian.	*I"Fortepian.	*I"Glos.	*	*	*
*I'Pf	*I'Pf	*I'V.	*	*	*
*Ipiano	*Ipiano	*Ivox	*	*	*
*ICklav	*ICklav	*ICvox	*	*	*
*clefF4	*clefG2	*clefG2	*	*	*
*k[b-]	*k[b-]	*k[b-]	*	*	*
*d:	*d:	*d:	*	*	*
*M3/8	*M3/8	*M3/8	*	*	*
=1	=1	=1	=1	=1	=1
!	!	!LO:TX:a:B:t=Andantino.	!	!	!
4DD/	8r	4.r	.	.	.
.	4ff\ 4aa 4fff	.	.	.	.
8A\ 8d 8f	.	.	.	.	.
=2	=2	=2	=2	=2	=2
4GG/	8r	4.r	.	.	.
.	4ee-X\ 4gg 4eee-X	.	.	.	.
8B-\ 8e-X 8g	.	.	.	.	.
=3	=3	=3	=3	=3	=3
*	*^	*	*	*	*
4AA/	8raa	8rcyy	4.r	.	.	.
.	[8ccc#X/	[8cc#X\ [8een	.	.	.	.
8A\ 8en 8g	16ccc#/LL]	16cc#\LL] 16ee]	.	.	.	.
.	32gg/L 32bbn	32bn\L	.	.	.	.
.	32ccc#/JJJ	32cc#\JJJ	.	.	.	.
*	*v	*v	*	*	*	*
=4	=4	=4	=4	=4	=4
4BB-/	8r	4.r	.	.	.
.	4dd\ 4ff 4ddd	.	.	.	.
8B-\ 8d 8f	.	.	.	.	.
=5	=5	=5	=5	=5	=5
4GG/	8r	4.r	.	.	.
.	8.b-\L 8.dd 8.bb-	.	.	.	.
8G\ 8dn 8e	.	.	.	.	.
.	16b-\Jk 16ee 16gg	.	.	.	.
=6	=6	=6	=6	=6	=6
4AA/	8r	4.r	.	.	.
.	4a\ 4dd 4ff	.	.	.	.
8A\ 8d 8f	.	.	.	.	.
=7	=7	=7	=7	=7	=7
*	*^	*	*	*	*
!	!	!	!LO:TX:a:t=Jan Gall.	!	!	!
4AA/	8raa	8rcyy	4.r	.	.	.
.	[8ee/	4g\ 4cc#X	.	.	.	.
8A\	16ee/LL]	.	.	.	.	.
.	32ff/L	.	.	.	.	.
.	32ee/JJJ	.	.	.	.	.
!LO:LB:g=original	!LO:LB:g=original	!	!LO:LB:g=original	!	!	!
=8	=8	=8	=8	=8	=8	=8
4.D\	8dd/	8f\ 8a	4.r	.	.	.
.	16A/LL 16d 16f	8rcyy	.	.	.	.
.	16A/ 16d 16f	.	.	.	.	.
.	16A/ 16d 16f	8rcyy	.	.	.	.
.	16A/JJ 16d 16f	.	.	.	.	.
*	*v	*v	*	*	*	*
=9	=9	=9	=9	=9	=9
4.DD/	8r	8a/	Ro-	Pry-	Mich
.	16A/LL 16d 16f	8.a/	-sa	-sły	flie-
.	16A/ 16d 16f	.	.	.	.
.	16A/ 16d 16f	.	.	.	.
.	16A/JJ 16d 16f	16a/	di-	ma-	-hen
=10	=10	=10	=10	=10	=10
4.EE/	8r	4cc#X\	-let-	-rze-	al-
.	16A/LL 16c#X 16g	.	.	.	.
.	16A/ 16c# 16g	.	.	.	.
.	16A/ 16c# 16g	8cc#\	-ta,af-	-nia	-le
.	16A/JJ 16c# 16g	.	.	.	.
=11	=11	=11	=11	=11	=11
4.FF/	8r	8ee\L	-fa-	śmia-	Freu-
.	16A/LL 16d 16a	8.dd\	-cia-	.	.
.	16A/ 16d 16a	.	.	.	.
.	16A/ 16d 16a	.	.	.	.
.	16A/JJ 16d 16a	16cc\Jk	.	.	.
=12	=12	=12	=12	=12	=12
4GG/	8r	4b-\	-ti	-łe	-den,
.	16B-/LL 16d 16e	.	.	.	.
.	16B-/ 16d 16e	.	.	.	.
8GG#X/	16r	8cc\	E	niech	ich
.	16B-/JJ 16d 16e	.	.	.	.
=13	=13	=13	=13	=13	=13
*	*	*^	*	*	*
4AA/	8r	8b-/	8b-\L	sen-	zgon	sterb'
.	16A/LL 16d 16f	8a/L	8a\J	-ti	.	.
.	16A/ 16d 16f	.	.	.	.	.
8AAA/	16r	16r	8rcyy	.	.	.
.	16A/JJ 16d 16f	16b-/Jk	.	.	me	vor
!LO:LB:g=original	!LO:LB:g=original	!	!LO:LB:g=original	!	!	!
*	*	*v	*v	*	*	*
=14	=14	=14	=14	=14	=14
4AA/	8r	8a/	mi	skró-	Un-
.	16A/LL 16c#X 16g	8g/	.	-ci	.
.	16A/ 16c# 16g	.	.	.	.
8AAA/	16r	8e/	can-	dni	-ge-
.	16A/JJ 16c# 16g	.	.	.	.
=15	=15	=15	=15	=15	=15
4.DD/	8r	[4.d/	-ta-	.	-duld
.	16A/LL 16d 16f	.	.	.	.
.	16A/ 16d 16f	.	.	.	.
.	16A/ 16d 16f	.	.	.	.
.	16A/JJ 16d 16f	.	.	.	.
=16	=16	=16	=16	=16	=16
4.D\	8r	4d/]	-re.	.	.
.	16A/LL 16d 16f	.	.	.	.
.	16A/ 16d 16f	.	.	.	.
.	16A/ 16d 16f	8r	.	.	.
.	16A/JJ 16d 16f	.	.	.	.
=17	=17	=17	=17	=17	=17
4.DD/	8r	8a/	Ec-	Ty	Ach!
.	16A/LL 16d 16f	8a/	-co	wzię-	wohl
.	16A/ 16d 16f	.	.	.	.
.	16A/ 16d 16f	8a/	fi-	-łaś	an
.	16A/JJ 16d 16f	.	.	.	.
=18	=18	=18	=18	=18	=18
4.EE/	8r	4cc#X\	-gliuo-	szczę-	al-
.	16A/LL 16c#X 16g	.	.	.	.
.	16A/ 16c# 16g	.	.	.	.
.	16A/ 16c# 16g	8cc#\	-la	-ście-	-len
.	16A/JJ 16c# 16g	.	.	.	.
=19	=19	=19	=19	=19	=19
*	*	*^	*	*	*
4.FF/	8r	8ee/	8ee\L	mo-	.	Lei-
.	16A/LL 16d 16a	8.dd/L	8.dd\	-na-	.	.
.	16A/ 16d 16a	.	.	.	.	.
.	16A/ 16d 16a	.	.	.	.	.
.	16A/JJ 16d 16a	16cc/Jk	16cc\Jk	.	.	.
!LO:PB:g=original	!LO:PB:g=original	!	!LO:PB:g=original	!	!	!
*	*	*v	*v	*	*	*
=20	=20	=20	=20	=20	=20
4.GG/	8r	4b-\	-co	.	-den
.	16B-/LL 16d 16e	.	.	.	.
.	16B-/ 16d 16e	.	.	.	.
.	16B-/ 16d 16e	8cc\	Per	-me	ist
.	16B-/JJ 16d 16e	.	.	.	.
=21	=21	=21	=21	=21	=21
(4AA/	8r	(8b-\	te	a	nur
.	16A/LL 16d 16f	8a/)	.	mnie	.
.	16A/ 16d 16f	.	.	.	.
8AAA/)	16r	16r	.	.	.
.	16A/JJ 16d 16f	16b-\	mi	zo-	die
=22	=22	=22	=22	=22	=22
4AA/	8r	8a/L	vo-	-sta-	Lie-
.	16A/LL 16c#X 16g	8g/J	.	.	.
.	16A/ 16c# 16g	.	.	.	.
8AAA/	16r	8e/	-glio	-ły	-be
.	16A/JJ 16c# 16g	.	.	.	.
=23	=23	=23	=23	=23	=23
4.DD/	8r	[4.d/	fa-	łzy!	schuld
.	16A/LL 16d 16f	.	.	.	.
.	16A/ 16d 16f	.	.	.	.
.	16A/ 16d 16f	.	.	.	.
.	16A/JJ 16d 16f	.	.	.	.
=24	=24	=24	=24	=24	=24
4.D\	8r	4d/]	-re.	.	.
.	16A/LL 16d 16f	.	.	.	.
.	16A/ 16d 16f	.	.	.	.
.	16A/ 16d 16f	8r	.	.	.
.	16A/JJ 16d 16f	.	.	.	.
=25	=25	=25	=25	=25	=25
4DD/	8r	4.r	.	.	.
.	4ff^\ 4aa 4fff	.	.	.	.
8A\ 8d 8f	.	.	.	.	.
=26	=26	=26	=26	=26	=26
4GG/	8r	4.r	.	.	.
.	4ee-X^\ 4gg 4eee-X	.	.	.	.
8B-\ 8e-X 8g	.	.	.	.	.
!LO:LB:g=original	!LO:LB:g=original	!LO:LB:g=original	!	!	!
=27	=27	=27	=27	=27	=27
4AA/	8r	4.r	.	.	.
.	[8cc#X\ [8ee [8ccc#X	.	.	.	.
8A\ 8en 8g	16cc#\LL] 16ee] 16ccc#]	.	.	.	.
.	32bn\L 32gg 32bbn	.	.	.	.
.	32cc#\JJJ 32ccc#	.	.	.	.
=28	=28	=28	=28	=28	=28
4BB-/	8r	4.r	.	.	.
.	4dd\ 4ff 4ddd	.	.	.	.
8B-\ 8d 8f	.	.	.	.	.
=29	=29	=29	=29	=29	=29
4BBn/	8r	4.r	.	.	.
.	4dd-X\ 4ff 4ddd-X	.	.	.	.
8A-X\ 8d-X 8f	.	.	.	.	.
=30	=30	=30	=30	=30	=30
4C/	8r	4.r	.	.	.
.	8.cc\L 8.ff 8.ccc	.	.	.	.
8An\ 8c 8f	.	.	.	.	.
.	16f\Jk 16an	.	.	.	.
=31	=31	=31	=31	=31	=31
*^	*^	*	*	*	*
8G/L	8C\	8b-/L	8e\	4.r	.	.	.
16G/L	4C\	16b-/L	(4e\	.	.	.	.
16F#X/	.	16a/	.	.	.	.	.
16G/	.	16b-/	.	.	.	.	.
16A/JJ	.	16cc/JJ	.	.	.	.	.
*v	*v	*	*	*	*	*	*
=32	=32	=32	=32	=32	=32	=32
4.F\	16a/LL	16f\)	4.r	.	.	.
.	16r	16rcyy	.	.	.	.
.	16c/ 16f 16a	8rcyy	.	.	.	.
.	16c/ 16f 16a	.	.	.	.	.
.	16c/ 16f 16a	8rcyy	.	.	.	.
.	16c/JJ 16f 16a	.	.	.	.	.
*	*v	*v	*	*	*	*
=33	=33	=33	=33	=33	=33
4.FF/	8r	4r	.	.	.
.	16c/LL 16f 16a	.	.	.	.
.	16c/ 16f 16a	.	.	.	.
.	16c/ 16f 16a	8cc\	.	Mę-	Sie
.	16c/JJ 16f 16a	.	.	.	.
!LO:LB:g=original	!LO:LB:g=original	!	!LO:LB:g=original	!	!
=34	=34	=34	=34	=34	=34
*	*	*^	*	*	*
4.F\	8r	4ff/	4rcyy	Dei	-czar-	quält
.	16c/LL 16f 16a	.	.	.	.	.
.	16c/ 16f 16a	.	.	.	.	.
.	16c/ 16f 16a	16cc/	16cc\LL	cap-	-nie	und
.	16c/JJ 16f 16a	16dd/	16dd\JJ	-pu-	bez	.
*	*	*v	*v	*	*	*
=35	=35	=35	=35	=35	=35
4G\	8r	(8ee\L	-cu-	cie-	plagt
.	16c/LL 16e 16b-	16dd\L)	.	.	.
.	16c/ 16e 16b-	16cc\JJ	.	.	.
8C/	16r	16cc\LL	-ni	-bie	mich
.	16c/JJ 16e 16b-	16b-\JJ	al	.	.
=36	=36	=36	=36	=36	=36
4.F\	8r	16a/	cre-	da-	im-
.	.	16g/	.	-lej	-mer-
.	16c/LL 16f 16a	[4f/	-mo	żyć	-hin
.	16c/ 16f 16a	.	.	.	.
.	16c/ 16f 16a	.	.	.	.
.	16c/JJ 16f 16a	.	.	.	.
=37	=37	=37	=37	=37	=37
4.FF/	8r	8f/]	.	.	.
.	16c/LL 16f 16a	8r	.	.	.
.	16c/ 16f 16a	.	.	.	.
.	16c/ 16f 16a	8a/	Lon-	Li-	vor
.	16c/JJ 16f 16a	.	.	.	.
=38	=38	=38	=38	=38	=38
*	*	*^	*	*	*
4.EE/	8r	(8b-\	8rcyy	-tan	-toś-	Angst
.	16c#X/LL 16g 16a	8.a/)	4a\	.	-ci	ich
.	16c#/ 16g 16a	.	.	.	.	.
.	16c#/ 16g 16a	.	.	.	.	.
.	16c#/JJ 16g 16a	16a/	.	.	ach!	nicht
*	*	*v	*v	*	*	*
=39	=39	=39	=39	=39	=39
4.AA/	8r	(>24a/LL	va-	że-	weiss,
.	.	24b-/	.	.	.
.	.	24a/JJ)	.	.	.
.	16c#X/LL 16gn 16a	8g#X/	do al	-brzę	wo
.	16c#/ 16g 16a	.	.	.	.
.	16c#/ 16g 16a	8a/	de	ja	ich
.	16c#/JJ 16g 16a	.	.	.	.
!LO:LB:g=original	!LO:LB:g=original	!	!LO:LB:g=original	!	!
=40	=40	=40	=40	=40	=40
4.DD/	8r	8b-\	ser-	two-	bin
.	16d/LL 16f 16a	[4a/	-to	-jej	.
.	16d/ 16f 16a	.	.	.	.
.	16d/ 16f 16a	.	.	.	.
.	16d/JJ 16f 16a	.	.	.	.
=41	=41	=41	=41	=41	=41
4.D\	8r	4a/]	.	.	.
.	16d/LL 16f 16a	.	.	.	.
.	16d/ 16f 16a	.	.	.	.
.	16d/ 16f 16a	16a\LL	Di	O	wer
.	16d/JJ 16f 16a	16dd\JJ	.	.	.
=42	=42	=42	=42	=42	=42
4DD/	8r	4ff\	sa-	daj	hät-
.	16d/LL 16f 16a	.	.	.	.
.	16d/ 16f 16a	.	.	.	.
8FF/	16r	8dd\	jo e	mi	-te
.	16A/JJ 16d 16a	.	.	.	.
=43	=43	=43	=43	=43	=43
4GG/	8r	4ee\	di	mi-	das
.	16A/LL 16c#X 16a	.	.	.	.
.	16A/ 16c# 16a	.	.	.	.
8EE/	16r	8cc#X\	ci-	-łość	ge-
.	16A/JJ 16c# 16a	.	.	.	.
=44	=44	=44	=44	=44	=44
4FF/	8r	(8ee\	-li-	swo-	-dacht
.	16A/LL 16d 16a	4dd\)	-ci-	-ję	.
.	16A/ 16d 16a	.	.	.	.
8F\	16r	.	.	.	.
.	16A/JJ 16d 16a	.	.	.	.
=45	=45	=45	=45	=45	=45
.	.	(16qqdd/LL	.	.	.
.	.	16qqcc/JJ	.	.	.
4G\	8r	4b-\)	-o	Ach!	ach,
.	16B-/LL 16d 16e	.	.	.	.
.	16B-/ 16d 16e	.	.	.	.
8GG/	16r	8cc\	il	i	die
.	16B-/JJ 16d 16e	.	.	.	.
!LO:LB:g=original	!LO:LB:g=original	!LO:LB:g=original	!	!	!
=46	=46	=46	=46	=46	=46
4AA/	8r	8b-\	cor-	mo-	Lie-
.	16A/LL 16d 16f	8a/	.	-ją,	-be,
.	16A/ 16d 16f	.	.	.	.
8GG#X/	16r	8b-\	-po	i	die
.	16A/JJ 16d 16f	.	.	.	.
=47	=47	=47	=47	=47	=47
4AA/	8r	(8a/	mio	mo-	Lieb'
.	16A/LL 16c#X 16gn	8g/)	.	-ją	hat's
.	16A/ 16c# 16g	.	.	.	.
8AAA/	16r	8e/	co-	być	ge-
.	16A/JJ 16c# 16g	.	.	.	.
=48	=48	=48	=48	=48	=48
4.DD/	8r	[4.d/	-per-	chciej!	-bracht.
.	16A/LL 16d 16f	.	.	.	.
.	16A/ 16d 16f	.	.	.	.
.	16A/ 16d 16f	.	.	.	.
.	16A/JJ 16d 16f	.	.	.	.
=49	=49	=49	=49	=49	=49
4.D\	8r	8d/]	-to.	.	.
.	16A/LL 16d 16f	8r	.	.	.
.	16A/ 16d 16f	.	.	.	.
.	16A/ 16d 16f	16a\LL	Di	O	Wer
.	16A/JJ 16d 16f	16dd\JJ	.	.	.
=50	=50	=50	=50	=50	=50
4DD/	8r	4ff\	sa	daj	hät-
.	16d/LL 16f 16a	.	.	.	.
.	16d/ 16f 16a	.	.	.	.
8FF/	16r	8dd\	jo e	mi	-te
.	16A/JJ 16d 16a	.	.	.	.
=51	=51	=51	=51	=51	=51
4GG/	8r	4ee\	di	mi-	das
.	16A/LL 16c#X 16a	.	.	.	.
.	16A/ 16c# 16a	.	.	.	.
8EE/	16r	8cc#X\	ci-	-łość	ge-
.	16A/JJ 16c# 16a	.	.	.	.
!LO:LB:g=original	!LO:LB:g=original	!LO:LB:g=original	!	!	!
=52	=52	=52	=52	=52	=52
4FF/	8r	(8ee\	-li-	swo-	-dacht,
.	16A/LL 16d 16a	4dd\)	-ci-	-ją	.
.	16A/ 16d 16a	.	.	.	.
8F\	16r	.	.	.	.
.	16A/JJ 16d 16a	.	.	.	.
=53	=53	=53	=53	=53	=53
.	.	(16qqdd/LL	.	.	.
.	.	16qqcc/JJ	.	.	.
4G\	8r	4b-\)	-o	Ach!	ach,
.	16B-/LL 16d 16e	.	.	.	.
.	16B-/ 16d 16e	.	.	.	.
8GG/	16r	8cc\	il	i	die
.	16B-/JJ 16d 16e	.	.	.	.
=54	=54	=54	=54	=54	=54
4AA/	8r	(8b-\	cor-	mo-	Lie-
.	16A/LL 16d 16f	8a/)	.	-ją,	-be,
.	16A/ 16d 16f	.	.	.	.
8GG#X/	16r	8b-\	-po	i	di
.	16B-/JJ 16d 16f	.	.	.	.
=55	=55	=55	=55	=55	=55
*	*^	*	*	*	*
8AA/L	16raa	8ryy	(8a/	mio	mo-	Lieb'
.	(16A/ 16d 16f	.	.	.	.	.
8BB-/	8g/L)	8G\L 8d	8g/)	.	-ją	hat's
16GG/L	8e/J	16B-\L 16d	8e/	co-	być	ge-
16AA/JJ	.	16A\JJ 16c#X	.	.	.	.
*	*v	*v	*	*	*	*
=56	=56	=56	=56	=56	=56
4.DD/	8F/L 8A 8d	[4.d/	-per-	chciej	-bracht,
.	16A/L 16d 16f	.	.	.	.
.	16A/ 16d 16f	.	.	.	.
.	16A/ 16d 16f	.	.	.	.
.	16A/JJ 16d 16f	.	.	.	.
=57	=57	=57	=57	=57	=57
4.D\	8r	8d/]	-to!	.	.
.	16A/LL 16d 16f	8r	.	.	.
.	16A/ 16d 16f	.	.	.	.
.	16A/ 16d 16f	8r	.	.	.
.	16A/JJ 16d 16f	.	.	.	.
!LO:LB:g=original	!LO:LB:g=original	!LO:LB:g=original	!	!	!
=58	=58	=58	=58	=58	=58
4DD/	8r	4.r	.	.	.
.	4ff\ 4aa 4fff	.	.	.	.
8A\ 8d 8f	.	.	.	.	.
=59	=59	=59	=59	=59	=59
4GG/	8r	4.r	.	.	.
.	4ee-X\ 4gg 4eee-X	.	.	.	.
8B-\ 8e-X 8g	.	.	.	.	.
=60	=60	=60	=60	=60	=60
4AA/	8r	4.r	.	.	.
.	[8cc#X\ [8een [8ccc#X	.	.	.	.
8A\ 8en 8g	16cc#\LL] 16ee] 16ccc#]	.	.	.	.
.	32bn\L 32bbn	.	.	.	.
.	32cc#\JJJ 32ccc#	.	.	.	.
=61	=61	=61	=61	=61	=61
4BB-/	8r	4.r	.	.	.
.	4dd\ 4ff 4ddd	.	.	.	.
8B-\ 8d 8f	.	.	.	.	.
=62	=62	=62	=62	=62	=62
4GG/	8r	4.r	.	.	.
.	8.b-\L 8.dd 8.bb-	.	.	.	.
8G\ 8dn 8e	.	.	.	.	.
.	16b-\Jk 16ee 16gg	.	.	.	.
=63	=63	=63	=63	=63	=63
4AA/	8r	4.r	.	.	.
.	4a\ 4dd 4ff	.	.	.	.
8A\ 8d 8f	.	.	.	.	.
=64	=64	=64	=64	=64	=64
*	*^	*	*	*	*
4AA/	8raa	8rcyy	4.r	.	.	.
.	[8ee/L	(4g\ 4cc#X	.	.	.	.
8A\	16ee/L]	.	.	.	.	.
.	32ff/L	.	.	.	.	.
.	32ee/JJJ	.	.	.	.	.
=65	=65	=65	=65	=65	=65	=65
4.D\	8dd/	8f\) 8a	4.r	.	.	.
.	16A/LL 16d 16f	8rcyy	.	.	.	.
.	16A/ 16d 16f	.	.	.	.	.
.	16A/ 16d 16f	8rcyy	.	.	.	.
.	16A/JJ 16d 16f	.	.	.	.	.
!LO:LB:g=original	!LO:LB:g=original	!LO:LB:g=original	!	!	!	!
*	*v	*v	*	*	*	*
=66	=66	=66	=66	=66	=66
4.GG/	8r	4.r	.	.	.
.	16G/LL 16B- 16d	.	.	.	.
.	16G/ 16B- 16d	.	.	.	.
.	16G/ 16B- 16d	.	.	.	.
.	16B-/JJ 16d 16e	.	.	.	.
=67	=67	=67	=67	=67	=67
4.DD/	8A/L 8d 8f	4.r	.	.	.
.	16F/L 16A 16d	.	.	.	.
.	16F/ 16A 16d	.	.	.	.
.	16F/ 16A 16d	.	.	.	.
.	16F/JJ 16A 16d	.	.	.	.
=68	=68	=68	=68	=68	=68
(4.GG/	8r	4.r	.	.	.
.	16G/LL 16B- 16d	.	.	.	.
.	16G/ 16B- 16d	.	.	.	.
.	16G/ 16B- 16d	.	.	.	.
.	16B-/JJ 16d 16e	.	.	.	.
=69	=69	=69	=69	=69	=69
8DD/)	8A/ 8d 8f	4.r	.	.	.
8r	8r	.	.	.	.
(8GG/	((8G/ 8B- 8d	.	.	.	.
=70	=70	=70	=70	=70	=70
8DD/)	8A/)) 8d 8f	4r	.	.	.
8r	8r	.	.	.	.
(8GG/	((8G/ 8B- 8d	8dd\	Ahi	O	die
=71	=71	=71	=71	=71	=71
[4.DD/)	((4.A/)) 4.d 4.f	(4.ff\	me!	zejdz!	Lie-
=72	=72	=72	=72	=72	=72
4.DD;</]	4.F;/)) 4.A 4.d	4.dd;\)	.	.	-be!
==	==	==	==	==	==
*-	*-	*-	*-	*-	*-
!!!RDF**kern: > = above
!!!RDF**kern: < = below
!!!system-decoration: s1[(s2,s3)]
!!!ENC: Solarz Mateusz
!!!END: 2022-09-08
!!!ENC: Julita Ruszuk
!!!END: 2022-09-22
!!!YEC: Copyright 2022 Narodowy Instytut Fryderyka Chopina (https://polishscores.org)
!!!YEM: License CC-BY-4.0 (https://creativecommons.org/licenses/by/4.0)
